epam-assets/icon-sources/18/internal-logo/billing.svg

<svg width="18" height="18" viewBox="0 0 18 18" fill="none" xmlns="http://www.w3.org/2000/svg">
<g id="18/internal-logo/billing">
<path id="icon" d="M14.262 9.23658C14.262 9.23658 9.23808 13.8205 9.23326 13.8205L5.65717 10.4079L6.00947 7.99781L9.27669 11.1261L12.264 8.45572C12.7742 7.97055 13.131 7.34671 13.2901 6.66127C13.4492 5.97583 13.4038 5.25885 13.1594 4.59891C12.915 3.93898 12.4824 3.36502 11.915 2.94797C11.3476 2.53091 10.6703 2.28903 9.96681 2.25223H4.17558C4.16781 2.24926 4.15922 2.24926 4.15145 2.25223L2.25 15.7486H11.96C12.4816 15.7631 13.0005 15.6669 13.4821 15.4663C13.9638 15.2656 14.3974 14.9651 14.7541 14.5847C15.1108 14.2042 15.3826 13.7525 15.5515 13.2593C15.7205 12.7661 15.7826 12.2427 15.7339 11.7238C15.6771 11.2313 15.5192 10.7558 15.2701 10.327C15.021 9.89827 14.686 9.52541 14.2861 9.23176C14.2861 9.23176 14.2668 9.22694 14.262 9.23658Z" fill="#6C6F80"/>
</g>
</svg>

<svg xmlns="http://www.w3.org/2000/svg" width="18" height="18" fill="none" viewBox="0 0 18 18">
  <path fill="#6C6F80" d="M14.262 9.237S9.238 13.82 9.233 13.82l-3.576-3.412.352-2.41 3.268 3.128 2.987-2.67a3.6 3.6 0 0 0-2.297-6.204H4.176a.034.034 0 0 0-.025 0L2.25 15.75h9.71a3.692 3.692 0 0 0 3.591-2.49 3.677 3.677 0 0 0 .183-1.535 3.602 3.602 0 0 0-1.448-2.492s-.02-.005-.024.005Z"/>
</svg>
